22x22/actions/autocorrection.svg

<svg xmlns="http://www.w3.org/2000/svg" viewBox="0 0 22 22">
  <defs id="defs3051">
    <style type="text/css" id="current-color-scheme">
      .ColorScheme-Text {
        color:#5d656b;
      }
      </style>
  </defs>
 <path 
     style="fill:currentColor;fill-opacity:1;stroke:none" 
	 d="M 4.5,3 3.96875,3.96875 3,4.5 3.96875,5.03125 4.5,6 5.03125,5.03125 6,4.5 5.03125,3.96875 4.5,3 Z M 9.5,3 8.96875,3.96875 8,4.5 8.96875,5.03125 9.5,6 10.03125,5.03125 11,4.5 10.03125,3.96875 9.5,3 Z M 16.171875,3 3,16.171875 5.828125,19 19,5.828125 16.171875,3 Z m -0.06836,1.4824219 1.414062,1.4140625 -3.097656,3.0996094 -1.416016,-1.4160157 3.09961,-3.0976562 z M 6.5,7 5.96875,7.96875 5,8.5 5.96875,9.03125 6.5,10 7.03125,9.03125 8,8.5 7.03125,7.96875 6.5,7 Z"
	 class="ColorScheme-Text"
     />
</svg>

<svg xmlns="http://www.w3.org/2000/svg" viewBox="0 0 22 22"><path style="fill:currentColor;fill-opacity:1;stroke:none;color:#5d656b" d="m4.5 3-.531.969L3 4.5l.969.531L4.5 6l.531-.969L6 4.5l-.969-.531L4.5 3zm5 0-.531.969L8 4.5l.969.531L9.5 6l.531-.969L11 4.5l-.969-.531L9.5 3zm6.672 0L3 16.172 5.828 19 19 5.828 16.172 3zm-.068 1.482 1.414 1.414-3.098 3.1-1.416-1.416 3.1-3.098zM6.5 7l-.531.969L5 8.5l.969.531L6.5 10l.531-.969L8 8.5l-.969-.531L6.5 7z"/></svg>
